X: 371
T: Ma yanxishan
%%abc-version 2.0
%%abcx-abcm2ps-target-version 5.9.1 (29 Sep 2008)
%%abc-creator hum2abc beta
%%abcx-conversion-date 2013/10/02 07:52:30
%%abc-edited-by Helmut Schaffrath
%%humdrum-veritas 2479905873
%%humdrum-veritas-data 3052938080
%%continueall 1
%%barnumbers 0
L: 1/8
M: 2/4
K: Bb
c' c'/ c'/ b g [I:setbarnb 1]| 
c' c' b g | 
c'/ c'/ c'/ f'/ b g | 
e c f c | 
f> g c' b | 
c' g/ f/ e e | 
g g/ c/ g/ f/ e/ c/ | 
c Bc2 | 
f f/ g< c' b/ | 
c' g/ f/ e e | 
g/ g/ g/ c'/ g/ f/ e/ c/ | 
c Bc2 |]  



